assets/img/braze_icons/bell-04.svg

<svg fill="none" height="24" viewBox="0 0 24 24" width="24" xmlns="http://www.w3.org/2000/svg"><path clip-rule="evenodd" d="m12.1912 4.85754c.0384-.40414.0069-.82189-.1043-1.23666-.5003-1.86713-2.41946-2.975169-4.28659-2.47487-1.86713.50029-2.97517 2.41947-2.47488 4.2866.11114.41478.29266.79238.52804 1.12316-.49482.41705-.93103.89662-1.29109 1.42871-.98238 1.45174-1.32206 3.18922-.88354 4.82572.5455 2.0359.42919 3.6119.10569 4.7709l-.00537.0193c-.20802.7452-.37049 1.3273-.47311 1.7414-.05129.2069-.09416.3975-.11954.5577-.01259.0794-.02461.1739-.02753.2717-.00217.0729-.00514.2611.07238.4675.04256.1134.1306.3375.32841.5374s.42103.2902.53392.334c.18396.0712.35081.0782.43315.0789.09719.0008.18906-.0079.26457-.0177.15096-.0195.32333-.0551.50184-.0963.35584-.0823.84878-.2143 1.46989-.3808l1.24681-.3341c.87543 1.5516 2.71815 2.3776 4.51845 1.8952 1.8004-.4824 2.9832-2.1191 2.9655-3.9005l3.1785-.8516c.6213-.1665 1.1143-.2986 1.4637-.4053.1752-.0536.3422-.109.4827-.1675.0703-.0293.1542-.0677.238-.117.071-.0417.212-.1312.3356-.2849.0759-.0943.2241-.2842.2954-.5562.0714-.272.0356-.5102.0158-.6296-.0361-.2175-.1328-.3791-.1711-.4411-.0514-.0832-.1091-.159-.1597-.2215-.1021-.126-.2345-.2697-.3824-.4233-.2959-.3072-.7276-.73-1.2803-1.2714l-.0144-.0141c-.8596-.8419-1.7484-2.1487-2.2939-4.18453-.4385-1.63656-1.6014-2.9714-3.178-3.73746-.5779-.28079-1.1955-.478-1.8326-.59177zm-3.87325-1.77968c-.8002.21441-1.27508 1.03692-1.06066 1.83712.05722.21357.15726.40358.28879.56364.41241-.19214.8442-.34952 1.28956-.46886.44533-.11932.89794-.19892 1.35116-.23873.0339-.20438.0255-.41894-.0317-.63251-.21445-.8002-1.03696-1.27507-1.83715-1.06066zm5.10745 16.23124-3.3469.8968c.4888.4879 1.2172.7092 1.9323.5176s1.2353-.7475 1.4146-1.4144z" fill="#801ed7" fill-rule="evenodd"/></svg>

<svg width="24" height="24" viewBox="0 0 24 24" fill="none" xmlns="http://www.w3.org/2000/svg">
<path fill-rule="evenodd" clip-rule="evenodd" d="M12.1912 4.85754C12.2296 4.4534 12.1981 4.03565 12.0869 3.62088C11.5866 1.75375 9.66744 0.645711 7.80031 1.14601C5.93318 1.6463 4.82514 3.56548 5.32543 5.43261C5.43657 5.84739 5.61809 6.22499 5.85347 6.55577C5.35865 6.97282 4.92244 7.45239 4.56238 7.98448C3.58 9.43622 3.24032 11.1737 3.67884 12.8102C4.22434 14.8461 4.10803 16.4221 3.78453 17.5811L3.77916 17.6004C3.57114 18.3456 3.40867 18.9277 3.30605 19.3418C3.25476 19.5487 3.21189 19.7393 3.18651 19.8995C3.17392 19.9789 3.1619 20.0734 3.15898 20.1712C3.15681 20.2441 3.15384 20.4323 3.23136 20.6387C3.27392 20.7521 3.36196 20.9762 3.55977 21.1761C3.75758 21.376 3.9808 21.4663 4.09369 21.5101C4.27765 21.5813 4.4445 21.5883 4.52684 21.589C4.62403 21.5898 4.7159 21.5811 4.79141 21.5713C4.94237 21.5518 5.11474 21.5162 5.29325 21.475C5.64909 21.3927 6.14203 21.2607 6.76314 21.0942L8.00995 20.7601C8.88538 22.3117 10.7281 23.1377 12.5284 22.6553C14.3288 22.1729 15.5116 20.5362 15.4939 18.7548L18.6724 17.9032C19.2937 17.7367 19.7867 17.6046 20.1361 17.4979C20.3113 17.4443 20.4783 17.3889 20.6188 17.3304C20.6891 17.3011 20.773 17.2627 20.8568 17.2134C20.9278 17.1717 21.0688 17.0822 21.1924 16.9285C21.2683 16.8342 21.4165 16.6443 21.4878 16.3723C21.5592 16.1003 21.5234 15.8621 21.5036 15.7427C21.4675 15.5252 21.3708 15.3636 21.3325 15.3016C21.2811 15.2184 21.2234 15.1426 21.1728 15.0801C21.0707 14.9541 20.9383 14.8104 20.7904 14.6568C20.4945 14.3496 20.0628 13.9268 19.5101 13.3854L19.4957 13.3713C18.6361 12.5294 17.7473 11.2226 17.2018 9.18677C16.7633 7.55021 15.6004 6.21537 14.0238 5.44931C13.4459 5.16852 12.8283 4.97131 12.1912 4.85754ZM8.31795 3.07786C7.51775 3.29227 7.04287 4.11478 7.25729 4.91498C7.31451 5.12855 7.41455 5.31856 7.54608 5.47862C7.95849 5.28648 8.39028 5.1291 8.83564 5.00976C9.28097 4.89044 9.73358 4.81084 10.1868 4.77103C10.2207 4.56665 10.2123 4.35209 10.1551 4.13852C9.94065 3.33832 9.11814 2.86345 8.31795 3.07786ZM13.4254 19.3091L10.0785 20.2059C10.5673 20.6938 11.2957 20.9151 12.0108 20.7235C12.7259 20.5319 13.2461 19.976 13.4254 19.3091Z" fill="#801ED7"/>
</svg>
